public/build/img/icDiamondD.svg

<svg xmlns="http://www.w3.org/2000/svg" xmlns:xlink="http://www.w3.org/1999/xlink" width="500" zoomAndPan="magnify" viewBox="0 0 375 374.999991" height="500" preserveAspectRatio="xMidYMid meet" version="1.0"><defs><clipPath id="773ae4c499"><path d="M 113 115.03125 L 262 115.03125 L 262 259.78125 L 113 259.78125 Z M 113 115.03125 " clip-rule="nonzero"/></clipPath></defs><g clip-path="url(#773ae4c499)"><path fill="#e08709" d="M 259.402344 145.277344 L 240.09375 118.890625 C 238.339844 116.4375 235.546875 115.03125 232.429688 115.03125 L 142.667969 115.03125 C 139.550781 115.03125 136.757812 116.4375 135.023438 118.867188 L 115.742188 145.21875 C 113.335938 148.3125 113.1875 152.769531 115.359375 156.027344 L 179.730469 255.636719 C 181.523438 258.230469 184.480469 259.785156 187.640625 259.785156 C 190.855469 259.785156 193.761719 258.199219 195.402344 255.574219 L 259.777344 155.957031 C 261.882812 152.460938 261.714844 148.246094 259.402344 145.277344 Z M 255.128906 148.042969 L 216.851562 148.042969 L 236.035156 121.957031 Z M 187.675781 245.730469 L 166.703125 153.125 L 208.648438 153.125 Z M 187.675781 121.875 L 206.824219 148.042969 L 168.527344 148.042969 Z M 163.515625 146.285156 L 144.265625 120.109375 L 182.667969 120.109375 Z M 192.683594 120.109375 L 231.085938 120.109375 L 211.835938 146.285156 Z M 139.144531 121.84375 C 139.15625 121.820312 139.175781 121.808594 139.191406 121.789062 L 158.496094 148.042969 L 119.96875 148.042969 Z M 119.609375 153.238281 C 119.585938 153.203125 119.582031 153.160156 119.558594 153.125 L 161.484375 153.125 L 184.101562 252.96875 C 184.058594 252.917969 184 252.875 183.964844 252.816406 Z M 191.363281 252.460938 L 213.863281 153.125 L 255.527344 153.125 C 255.5 153.175781 255.492188 153.226562 255.464844 153.273438 Z M 191.363281 252.460938 " fill-opacity="1" fill-rule="nonzero"/></g></svg>

<svg xmlns="http://www.w3.org/2000/svg" width="500" viewBox="0 0 375 375" height="500" version="1.0"><defs><clipPath id="a"><path d="M113 115.031h149v144.75H113zm0 0"/></clipPath></defs><g clip-path="url(#a)"><path fill="#e08709" d="M259.402 145.277l-19.308-26.386c-1.754-2.454-4.547-3.86-7.664-3.86h-89.762c-3.117 0-5.91 1.406-7.645 3.836l-19.28 26.352c-2.407 3.094-2.555 7.55-.384 10.808l64.371 99.61a9.62 9.62 0 007.91 4.148c3.215 0 6.122-1.586 7.762-4.21l64.375-99.618c2.106-3.496 1.938-7.71-.375-10.68zm-4.273 2.766h-38.277l19.183-26.086zm-67.453 97.687l-20.973-92.605h41.945zm0-123.855l19.148 26.168h-38.297zm-24.16 24.41l-19.25-26.176h38.402zm29.168-26.176h38.402l-19.25 26.176zm-53.54 1.735c.012-.024.032-.035.047-.055l19.305 26.254H119.97zm-19.535 31.394c-.023-.035-.027-.078-.05-.113h41.925l22.618 99.844c-.043-.051-.102-.094-.137-.153zm71.754 99.223l22.5-99.336h41.664c-.027.05-.035.102-.062.148zm0 0"/></g></svg>
